X:1
T:I Want to Do Something for Jesus
T:I Want to Do Something for Jesus
T:Woodie Washington Smith
T:S. W. Jones, 1910
T:Public Domain Courtesy of the Cyber Hymnal™
C:Woodie Washington Smith
Z:Public Domain
Z:Courtesy of the Cyber Hymnal™
%%score ( 1 2 ) ( 3 4 )
L:1/8
Q:1/4=88
M:6/8
K:C
V:1 treble 
V:2 treble 
V:3 bass 
V:4 bass 
V:1
 G | [Ge]>[^F^d][Ge] [Ec][=FB][Gc] | (d2 c) [FA]2 [FA] | [EG][^D^F][EG] [Ec][=F=d][^F^d] | %4
w: 1.~I|want to do some- thing for|Je- * sus, He|suf- fered and died on the|
w: 2.~I|want to do some- thing for|Je- * sus, Be-|cause He from sin made me|
w: 3.~I|want to do some- thing for|Je- * sus, His|ser- vant I’m will- ing to|
w: 4.~I|want to do some- thing for|Je- * sus, That|o- thers His great love may|
 ([G-e]3 [Gd]2) G | [Ge]>[^F^d][Ge] [Ec][=FB][Gc] | (d2 c) [FA]2"^riten." [^DA] | %7
w: tree; * That|I thro’ His death might have|par- * don— He’s|
w: free; * He|res- cued my soul from all|dan- * ger, He’s|
w: be; * I’ll|tell of His love and His|mer- * cy, He’s|
w: see; * For-|ev- er I’ll sing the sweet|sto- * ry, He’s|
 [EG]2 [Ec] [Ec]2 [Fd] | [Ec]3- [Ec]2 ||"^Refrain" [Ec] | [Fc]>[Fc][Fc] [Fd][Fc][FA] | %11
w: done so much for|me! *|||
w: done so much for|me! *|I|want to do some- thing for|
w: done so much for|me! *|||
w: done so much for|me! *|||
 (c2 c) [EG]2 [EG] | [DF]>[DF][DF] [DF][EG][DF] | [CE]3- [CE]2 G | [Ge]>[^F^d][Ge] [Ec][=FB][Gc] | %15
w: ||||
w: Je- * sus, Tho’|weak and un- wor- thy I|be; * I’ll|lab- or for Him, my dear|
w: ||||
w: ||||
 (d2 c) [FA]2"^riten." [^DA] | [EG]2 [Ec] [Ec]2 [Fd] | [Ec]3- [Ec]2 |] %18
w: |||
w: Sav- * ior— He’s|done so much for|me! *|
w: |||
w: |||
V:2
 G | x6 | F3 x3 | x6 | x5 G | x6 | F3 x3 | x6 | x5 || x | x6 | E3 x3 | x6 | x5 G | x6 | F3 x3 | %16
 x6 | x5 |] %18
V:3
 G, | [C,C]>[C,C][C,C] [C,G,][D,G,][E,C] | [F,A,]3 [F,C]2 [F,C] | %3
 [C,C][C,C][C,C] [A,C][A,C][_A,C] | ([G,-C]3 [G,B,]2) G, | [C,C]>[C,C][C,C] [C,G,][D,G,][E,C] | %6
 [F,A,]3 [F,C]2 [^F,C] | [G,C]2 G, [G,,G,]2 [G,,G,] | [C,G,]3- [C,G,]2 || [C,G,] | %10
 [F,A,]>[F,A,][F,A,] [F,A,][F,A,][F,C] | [C,C]3 [C,C]2 [C,G,] | %12
 [D,G,]>[D,G,][D,G,] [G,,G,][G,,G,][G,,G,] | [C,G,]3- [C,G,]2 G, | %14
 [C,C]>[C,C][C,C] [C,G,][D,G,][E,C] | [F,A,]3 [F,C]2 [^F,C] | [G,C]2 G, [G,,G,]2 [G,,G,] | %17
 [C,G,]3- [C,G,]2 |] %18
V:4
 G, | x6 | x6 | x6 | x5 G, | x6 | x6 | x2 G, x3 | x5 || x | x6 | x6 | x6 | x5 G, | x6 | x6 | %16
 x2 G, x3 | x5 |] %18

